X: 3
T: Sean Ryan's (traditional)
M: 6/8
L: 1/8
R: jig
K: Ador
|:"Am"~c3 "G"BAG|"Am"AGE "G"DB,G,|"Am"~A,3 EDB,|"G"DEG AGE|
"Am"cBA "G"BAG|"Am"AGE "G"DB,G,|"Am"A,2 E "Em"EDE|"G"DB,G, "Am"A,2 B:|
|:"Am"cBA ~a3|bag edB|"G"GBd gfg|GBd cBA|
"Am"cBc "G"dcd|"Am"ede "G"gab|"Am"age "G"dBG|"Em"EFG "Am"A2 B:|
%%text Transition: Don't play that last B pickup note.
%%vskip 1cm

